images/logo.svg

<?xml version="1.0" encoding="UTF-8" standalone="no"?>
<svg
   width="31"
   height="38"
   viewBox="0 0 31 38"
   fill="none"
   version="1.1"
   id="svg3"
   sodipodi:docname="logo.svg"
   inkscape:version="1.3.2 (091e20e, 2023-11-25, custom)"
   xmlns:inkscape="http://www.inkscape.org/namespaces/inkscape"
   xmlns:sodipodi="http://sodipodi.sourceforge.net/DTD/sodipodi-0.dtd"
   xmlns="http://www.w3.org/2000/svg"
   xmlns:svg="http://www.w3.org/2000/svg">
  <defs
     id="defs3" />
  <sodipodi:namedview
     id="namedview3"
     pagecolor="#ffffff"
     bordercolor="#000000"
     borderopacity="0.25"
     inkscape:showpageshadow="2"
     inkscape:pageopacity="0.0"
     inkscape:pagecheckerboard="0"
     inkscape:deskcolor="#d1d1d1"
     inkscape:zoom="15.578947"
     inkscape:cx="13.351351"
     inkscape:cy="18.807432"
     inkscape:window-width="1440"
     inkscape:window-height="830"
     inkscape:window-x="-6"
     inkscape:window-y="-6"
     inkscape:window-maximized="1"
     inkscape:current-layer="svg3" />
  <path
     d="M15.7293 1.02387C14.2178 1.02387 12.8044 1.23023 11.4908 1.64409C10.1953 2.03997 9.07197 2.6262 8.11827 3.39996C7.18257 4.17371 6.44352 5.13639 5.90369 6.28802C5.38186 7.42166 5.12197 8.71675 5.12197 10.1743C5.12197 11.5958 5.34558 12.8201 5.79545 13.8458C6.2633 14.8535 6.86681 15.7341 7.60457 16.4899C8.34234 17.2457 9.17897 17.9027 10.1147 18.4605C10.4592 18.6659 10.8086 18.863 11.1617 19.0539C11.7098 19.4098 12.0908 19.2312 12.2915 18.4751V14.376C12.3017 14.1937 12.2295 14.0863 12.0699 13.9385C11.4805 13.3923 10.9217 12.8796 10.5201 12.2531C10.0703 11.5514 9.84492 10.7147 9.84492 9.74305C9.84492 9.07727 9.96148 8.447 10.1954 7.85318C10.4293 7.25937 10.7807 6.74566 11.2486 6.31379C11.7164 5.88193 12.3104 5.54003 13.0302 5.28811C13.75 5.01818 14.5961 4.88436 15.5678 4.88436C16.6115 4.88436 17.5457 5.01818 18.3734 5.28811C19.2191 5.54002 19.9487 5.8284 20.5605 6.1523C21.1723 6.4582 21.686 6.73707 22.0999 6.989C22.5318 7.2409 22.8452 7.36697 23.0431 7.36697C23.1691 7.36697 23.2779 7.3307 23.3678 7.25872C23.4758 7.16875 23.5561 7.04268 23.6101 6.88074C23.6641 6.70081 23.7004 6.48496 23.7183 6.23303C23.7543 5.98112 23.7733 5.69274 23.7733 5.36885C23.7733 5.02695 23.7637 4.74807 23.7457 4.53215C23.7277 4.31621 23.7009 4.13664 23.6649 3.99268C23.6289 3.83073 23.5832 3.70466 23.5292 3.6147C23.4752 3.50675 23.3586 3.3729 23.1787 3.21096C23.0168 3.03102 22.6654 2.80567 22.1255 2.53576C21.5857 2.24784 20.9649 1.99573 20.2632 1.77981C19.5794 1.54588 18.842 1.36629 18.0503 1.24033C17.2765 1.09638 16.5031 1.02387 15.7293 1.02387ZM17.6072 17.5076V22.1424C17.6052 22.2619 17.6525 22.283 17.7059 22.3221C17.9442 22.4966 18.1995 22.638 18.4284 22.8055C19.1577 23.3391 19.7602 23.9403 20.21 24.6421C20.6599 25.3439 20.8852 26.1883 20.8852 27.178C20.8852 28.0957 20.7229 28.915 20.399 29.6348C20.0751 30.3546 19.6072 30.9659 18.9954 31.4697C18.4016 31.9556 17.6815 32.3337 16.8358 32.6036C16.008 32.8736 15.0911 33.0091 14.0834 33.0091C12.7518 33.0091 11.5733 32.8563 10.5476 32.5504C9.53996 32.2265 8.67485 31.8846 7.95508 31.5247C7.2353 31.1648 6.64129 30.8324 6.17344 30.5265C5.72359 30.2206 5.3739 30.0661 5.12198 30.0661C4.97803 30.0661 4.85196 30.1023 4.74401 30.1743C4.63603 30.2283 4.54623 30.3371 4.47428 30.499C4.4023 30.661 4.34705 30.8768 4.31107 31.1467C4.27507 31.3987 4.25781 31.7216 4.25781 32.1175C4.25781 32.6753 4.30356 33.126 4.39353 33.4678C4.50151 33.7917 4.65431 34.0611 4.85225 34.2771C5.06819 34.493 5.43685 34.7546 5.95869 35.0605C6.49851 35.3664 7.15555 35.6625 7.9293 35.9505C8.72106 36.2384 9.61121 36.481 10.6009 36.6789C11.6086 36.8768 12.6973 36.9761 13.8669 36.9761C15.5404 36.9761 17.0971 36.7525 18.5366 36.3027C19.9942 35.8528 21.253 35.1863 22.3147 34.3045C23.3943 33.4048 24.2309 32.3161 24.8248 31.0385C25.4366 29.7609 25.7422 28.3035 25.7422 26.666C25.7422 25.2805 25.5091 24.0829 25.0412 23.0753C24.5914 22.0496 23.9879 21.1689 23.2321 20.4312C22.4943 19.6754 21.6499 19.0279 20.6963 18.488C19.9001 18.0223 19.1391 17.4702 18.2696 17.2035C17.5402 16.9797 17.6768 17.3422 17.6072 17.5076Z"
     fill="white"
     id="path1"
     style="fill:#ffffff" />
  <path
     d="m 17.2206,11.7243 c 0,0.8721 -0.1654,1.4661 -0.4962,1.7818 -0.3308,0.3158 -0.9398,0.4737 -1.8269,0.4737 -0.8721,0 -1.4736,-0.1504 -1.8044,-0.4511 -0.3158,-0.3158 -0.4736,-0.9022 -0.4736,-1.7593 0,-0.8721 0.1654,-1.466 0.4962,-1.7818 0.3308,-0.3158 0.9398,-0.4736 1.8269,-0.4736 0.8721,0 1.4661,0.1579 1.7818,0.4736 0.3308,0.3007 0.4962,0.8796 0.4962,1.7367 z"
     fill="#fca311"
     id="path2" />
  <path
     d="m 16.7921,30.66216 c 0,0.10562 -0.03,0.198075 -0.0903,0.277272 -0.0601,0.06607 -0.1579,0.125372 -0.2932,0.178229 -0.1353,0.05277 -0.3233,0.09235 -0.5638,0.118797 -0.2406,0.02627 -0.5489,0.03957 -0.9248,0.03957 -0.3609,0 -0.6616,-0.01311 -0.9022,-0.03957 -0.2405,-0.02627 -0.436,-0.06607 -0.5864,-0.118797 -0.1353,-0.05288 -0.233,-0.112208 -0.2932,-0.178229 -0.0451,-0.07916 -0.0676,-0.171652 -0.0676,-0.277272 V 15.928901 c 0,-0.09244 0.0226,-0.178229 0.0676,-0.257427 0.0602,-0.07915 0.1579,-0.145218 0.2932,-0.198075 0.1504,-0.05278 0.3458,-0.09235 0.5864,-0.118797 0.2406,-0.02628 0.5413,-0.03957 0.9022,-0.03957 0.3759,0 0.6842,0.01311 0.9248,0.03957 0.2405,0.02627 0.4285,0.06607 0.5638,0.118797 0.1354,0.05288 0.2331,0.118879 0.2932,0.198075 0.0602,0.07915 0.0903,0.164971 0.0903,0.257427 z"
     fill="#fca311"
     id="path3"
     style="stroke-width:0.93703" />
</svg>

<svg xmlns="http://www.w3.org/2000/svg" width="31" height="38" fill="none"><path fill="#fff" d="M15.73 1.024q-2.269 0-4.24.62Q9.549 2.24 8.119 3.4a8.2 8.2 0 0 0-2.214 2.888q-.783 1.7-.782 3.886 0 2.133.673 3.672a9.4 9.4 0 0 0 1.81 2.644 12.3 12.3 0 0 0 2.51 1.97q.517.308 1.047.594c.548.356.929.177 1.13-.579v-4.099c.01-.182-.062-.29-.222-.437-.59-.547-1.148-1.06-1.55-1.686q-.675-1.052-.675-2.51 0-.999.35-1.89a4.1 4.1 0 0 1 1.054-1.54q.7-.647 1.781-1.025 1.08-.404 2.538-.404 1.565 0 2.805.404 1.27.378 2.188.864.917.459 1.539.837.647.378.943.378a.5.5 0 0 0 .325-.108.8.8 0 0 0 .242-.378q.081-.27.108-.648.054-.378.055-.864 0-.512-.027-.837a3.5 3.5 0 0 0-.081-.54 1.3 1.3 0 0 0-.136-.377q-.08-.162-.35-.404-.244-.27-1.053-.675-.81-.432-1.863-.756a13.3 13.3 0 0 0-2.213-.54 12.7 12.7 0 0 0-2.32-.216m1.877 16.484v4.634c-.002.12.046.141.099.18.238.175.494.316.722.483.73.534 1.332 1.135 1.782 1.837q.675 1.052.675 2.536 0 1.377-.486 2.457a5 5 0 0 1-1.404 1.835q-.89.729-2.16 1.134-1.24.405-2.752.405-1.997 0-3.535-.459-1.512-.485-2.593-1.025a18 18 0 0 1-1.782-.998q-.675-.46-1.051-.46a.67.67 0 0 0-.378.107q-.162.082-.27.325a2.4 2.4 0 0 0-.163.648 7 7 0 0 0-.053.97q0 .838.136 1.35.162.487.458.81.324.325 1.107.783.81.458 1.97.89 1.188.432 2.672.729 1.511.297 3.266.297 2.51 0 4.67-.673 2.185-.676 3.778-1.998a9.3 9.3 0 0 0 2.51-3.267q.918-1.916.917-4.372 0-2.08-.7-3.59a8.3 8.3 0 0 0-1.81-2.645 11.3 11.3 0 0 0-2.536-1.943c-.796-.466-1.557-1.018-2.426-1.285-.73-.223-.593.14-.663.305" style="fill:#fff"/><path fill="#fca311" d="M17.22 11.724q0 1.308-.496 1.782t-1.826.474q-1.309 0-1.805-.451-.474-.473-.473-1.76 0-1.308.496-1.781.496-.474 1.827-.474 1.308 0 1.781.474.497.451.497 1.736"/><path fill="#fca311" d="M16.792 30.662q0 .159-.09.277a.8.8 0 0 1-.293.179 2.3 2.3 0 0 1-.564.118q-.361.04-.925.04-.541 0-.902-.04a2.7 2.7 0 0 1-.587-.118.8.8 0 0 1-.293-.179.55.55 0 0 1-.067-.277V15.93q0-.139.067-.258a.66.66 0 0 1 .293-.198q.225-.079.587-.118.36-.04.902-.04.564 0 .925.04.36.04.564.118a.66.66 0 0 1 .293.198q.09.12.09.258z" style="stroke-width:.93703"/></svg>
